resources/svg/git-repository-private-fill.svg

<svg fill="currentColor" viewBox="0 0 24 24" xmlns="http://www.w3.org/2000/svg"><path d="M18 8H20C20.5523 8 21 8.44772 21 9V21C21 21.5523 20.5523 22 20 22H4C3.44772 22 3 21.5523 3 21V9C3 8.44772 3.44772 8 4 8H6V7C6 3.68629 8.68629 1 12 1C15.3137 1 18 3.68629 18 7V8ZM16 8V7C16 4.79086 14.2091 3 12 3C9.79086 3 8 4.79086 8 7V8H16ZM7 11V13H9V11H7ZM7 14V16H9V14H7ZM7 17V19H9V17H7Z"/></svg>

<svg xmlns="http://www.w3.org/2000/svg" viewBox="0 0 24 24" fill="currentColor">
    <g>
        <path fill="none" d="M0 0h24v24H0z"/>
        <path fill-rule="nonzero" d="M18 8h2a1 1 0 0 1 1 1v12a1 1 0 0 1-1 1H4a1 1 0 0 1-1-1V9a1 1 0 0 1 1-1h2V7a6 6 0 1 1 12 0v1zm-2 0V7a4 4 0 1 0-8 0v1h8zm-9 3v2h2v-2H7zm0 3v2h2v-2H7zm0 3v2h2v-2H7z"/>
    </g>
</svg>
